X:1
T:Title
%%score ( 1 2 ) 3
L:1/8
Q:1/4=105
M:4/4
K:Ab
V:1 treble nm="Grand Piano, Soprano"
V:2 treble 
V:3 bass nm="Choir Pad, Stock Island, H. R. Jeffrey"
V:1
 [A,C][B,D] [CE]2- [CE][CE] [DF]2 | [CE]2 [CE][CA]- [CA]3- [CA]/ z/ | [Ec]2 [DB]2- [DB][CA] [DB]2 | %3
w: By~H.~R.~Jeffrey,~1897 * * * * *|||
 [Ec]2 [CA]6 | [A,C][B,D] [CE]2- [CE][CE] [DF]2 | [CE]2 [CE][CA]- [CA]3- [CA]/ z/ | %6
w: |||
 [Ec]2 [DB]2- [DB][CA] [DB]2 | [Ec]2 [CA]6 | [CA][DB] [Ec]2- [Ec][DB] [CA]2 | %9
w: |||
 [Ec]2 [Ee][Ee]- [Ee]3- [Ee]/ z/ | z4 z2 .B2 | [DF]2 [CE]6 | [A,C][B,D] [CE]2- [CE][CE] [DF]2 | %13
w: ||||
 [CE]2 [CE][CA]- [CA]3- [CA]/ z/ | [Ec]2 [DB]2- [DB][CA] [DB]2 | [Ec]2 [CA]6- | [CA]2 z2 z4 |] %17
w: ||||
V:2
 x8 | x8 | x8 | x8 | x8 | x8 | x8 | x8 | x8 | x8 | [Ec][=EB] [FA]2- [FA][FA]F-[FA] | x8 | x8 | x8 | %14
 x8 | x8 | x8 |] %17
V:3
 [A,,E,][A,,E,] [A,,A,]2- [A,,A,][A,,A,] [A,,A,]2 | %1
 [A,,A,]2 [A,,A,][A,,E,]- [A,,E,]3- [A,,E,]/ z/ | [A,,A,]2 [E,G,]2- [E,G,][E,F,] [E,G,]2 | %3
 [E,G,]2 [A,,A,]6 | [A,,E,][A,,E,] [A,,A,]2- [A,,A,][A,,A,] [A,,A,]2 | %5
 [A,,A,]2 [A,,A,][A,,E,]- [A,,E,]3- [A,,E,]/ z/ | [A,,A,]2 [E,G,]2- [E,G,][E,F,] [E,G,]2 | %7
 [E,G,]2 [A,,A,]6 | A,A, A,2- A,/ z/ A, A,2 | A,2 [A,C][A,C]- [A,C]3- [A,C]/ z/ | %10
 A,[C,G,] [D,A,]2- [D,A,][D,D] [D,D]2 | [D,A,]2 [A,,A,]6 | %12
 [A,,E,][A,,E,] [A,,A,]2- [A,,A,][A,,A,] [A,,A,]2 | %13
 [A,,A,]2 [A,,A,][A,,E,]- [A,,E,]3- [A,,E,]/ z/ | [A,,A,]2 [E,G,]2- [E,G,][E,F,] [E,G,]2 | %15
 [E,G,]2 [A,,A,]6- | [A,,A,]2 z2 z4 |] %17

